X: 3250
T: Behind The Ditch In Pairc Anna
R: hornpipe
M: 4/4
K: Gmixolydian
F|DGGA B2c2|dedc A2c2|.d2G2 AGFD|GcAG FDC2|
DGGA B2c2|dedc A2c2|.d2G2 AGFA|G2G^F G3:|
f|d2g^f d2c2|dgg^f d2c2|dggG AGFD|GcAG FDC2|
DGGA B2c2|dedc A2c2|.d2G2 AGFA|G2G^F G3:|

